svg/24/background-replace.svg

<svg width="24" height="24" viewBox="0 0 24 24" fill="currentColor" xmlns="http://www.w3.org/2000/svg"><path fill-rule="evenodd" clip-rule="evenodd" d="M12 12.5C13.3807 12.5 14.5 11.3807 14.5 10C14.5 8.61929 13.3807 7.5 12 7.5C10.6193 7.5 9.5 8.61929 9.5 10C9.5 11.3807 10.6193 12.5 12 12.5ZM12 14C14.2091 14 16 12.2091 16 10C16 7.79086 14.2091 6 12 6C9.79086 6 8 7.79086 8 10C8 12.2091 9.79086 14 12 14Z"/><path fill-rule="evenodd" clip-rule="evenodd" d="M14 16.5H10C8.067 16.5 6.5 18.067 6.5 20C6.5 20.2761 6.72386 20.5 7 20.5H17C17.2761 20.5 17.5 20.2761 17.5 20C17.5 18.067 15.933 16.5 14 16.5ZM10 15C7.23858 15 5 17.2386 5 20C5 21.1046 5.89543 22 7 22H17C18.1046 22 19 21.1046 19 20C19 17.2386 16.7614 15 14 15H10Z"/><path fill-rule="evenodd" clip-rule="evenodd" d="M5.53033 2.21967C5.82322 2.51256 5.82322 2.98744 5.53033 3.28033L3.28033 5.53033C2.98744 5.82322 2.51256 5.82322 2.21967 5.53033C1.92678 5.23744 1.92678 4.76256 2.21967 4.46967L4.46967 2.21967C4.76256 1.92678 5.23744 1.92678 5.53033 2.21967Z"/><path fill-rule="evenodd" clip-rule="evenodd" d="M9.53033 2.21967C9.82322 2.51256 9.82322 2.98744 9.53033 3.28033L3.28033 9.53033C2.98744 9.82322 2.51256 9.82322 2.21967 9.53033C1.92678 9.23744 1.92678 8.76256 2.21967 8.46967L8.46967 2.21967C8.76256 1.92678 9.23744 1.92678 9.53033 2.21967Z"/><path fill-rule="evenodd" clip-rule="evenodd" d="M6.28009 9.47016C6.57298 9.76305 6.57298 10.2379 6.28009 10.5308L3.28033 13.5306C2.98744 13.8235 2.51256 13.8235 2.21967 13.5306C1.92678 13.2377 1.92678 12.7628 2.21967 12.4699L5.21943 9.47016C5.51232 9.17726 5.98719 9.17726 6.28009 9.47016Z"/><path fill-rule="evenodd" clip-rule="evenodd" d="M11.4697 4.28057C11.1768 3.98768 11.1768 3.51281 11.4697 3.21991L12.467 2.22262C12.7599 1.92973 13.2348 1.92973 13.5276 2.22262C13.8205 2.51552 13.8205 2.99039 13.5276 3.28328L12.5304 4.28057C12.2375 4.57347 11.7626 4.57347 11.4697 4.28057Z"/><path fill-rule="evenodd" clip-rule="evenodd" d="M7.13165 12.6181C7.42454 12.911 7.42454 13.3859 7.13165 13.6788L3.28033 17.5301C2.98744 17.823 2.51256 17.823 2.21967 17.5301C1.92678 17.2372 1.92678 16.7623 2.21967 16.4694L6.07099 12.6181C6.36388 12.3252 6.83876 12.3252 7.13165 12.6181Z"/><path fill-rule="evenodd" clip-rule="evenodd" d="M14.6166 5.13336C14.3237 4.84046 14.3237 4.36559 14.6166 4.0727L16.4697 2.21967C16.7626 1.92678 17.2374 1.92678 17.5303 2.21967C17.8232 2.51256 17.8232 2.98744 17.5303 3.28033L15.6773 5.13336C15.3844 5.42625 14.9095 5.42625 14.6166 5.13336Z"/><path fill-rule="evenodd" clip-rule="evenodd" d="M19.2338 17.0162C18.9409 16.7233 18.9409 16.2484 19.2338 15.9555L20.7197 14.4697C21.0126 14.1768 21.4874 14.1768 21.7803 14.4697C22.0732 14.7626 22.0732 15.2374 21.7803 15.5303L20.2945 17.0162C20.0016 17.3091 19.5267 17.3091 19.2338 17.0162Z"/><path fill-rule="evenodd" clip-rule="evenodd" d="M17.2872 14.9629C16.9943 14.6701 16.9943 14.1952 17.2872 13.9023L20.7197 10.4698C21.0126 10.1769 21.4874 10.1769 21.7803 10.4698C22.0732 10.7627 22.0732 11.2376 21.7803 11.5305L18.3478 14.9629C18.0549 15.2558 17.5801 15.2558 17.2872 14.9629Z"/><path fill-rule="evenodd" clip-rule="evenodd" d="M17.7206 10.5294C17.4278 10.2365 17.4278 9.76159 17.7206 9.46869L20.7197 6.46967C21.0126 6.17678 21.4874 6.17678 21.7803 6.46967C22.0732 6.76256 22.0732 7.23744 21.7803 7.53033L18.7813 10.5294C18.4884 10.8222 18.0135 10.8222 17.7206 10.5294Z"/><path fill-rule="evenodd" clip-rule="evenodd" d="M21.7803 2.21967C22.0732 2.51256 22.0732 2.98744 21.7803 3.28033L17.8367 7.22393C17.5438 7.51683 17.069 7.51683 16.7761 7.22393C16.4832 6.93104 16.4832 6.45617 16.7761 6.16327L20.7197 2.21967C21.0126 1.92678 21.4874 1.92678 21.7803 2.21967Z"/></svg>

<svg xmlns="http://www.w3.org/2000/svg" width="24" height="24" fill="currentColor" viewBox="0 0 24 24">
  <path fill-rule="evenodd" d="M12 12.5a2.5 2.5 0 1 0 0-5 2.5 2.5 0 0 0 0 5Zm0 1.5a4 4 0 1 0 0-8 4 4 0 0 0 0 8Zm2 2.5h-4A3.5 3.5 0 0 0 6.5 20a.5.5 0 0 0 .5.5h10a.5.5 0 0 0 .5-.5 3.5 3.5 0 0 0-3.5-3.5ZM10 15a5 5 0 0 0-5 5 2 2 0 0 0 2 2h10a2 2 0 0 0 2-2 5 5 0 0 0-5-5h-4ZM5.53 2.22a.75.75 0 0 1 0 1.06L3.28 5.53a.75.75 0 0 1-1.06-1.06l2.25-2.25a.75.75 0 0 1 1.06 0Zm4 0a.75.75 0 0 1 0 1.06L3.28 9.53a.75.75 0 0 1-1.06-1.06l6.25-6.25a.75.75 0 0 1 1.06 0ZM6.28 9.47a.75.75 0 0 1 0 1.06l-3 3a.75.75 0 1 1-1.06-1.06l3-3a.75.75 0 0 1 1.06 0Zm5.19-5.19a.75.75 0 0 1 0-1.06l.997-.997a.75.75 0 1 1 1.06 1.06l-.997.998a.75.75 0 0 1-1.06 0Zm-4.338 8.338a.75.75 0 0 1 0 1.06L3.28 17.53a.75.75 0 1 1-1.06-1.06l3.851-3.852a.75.75 0 0 1 1.06 0Zm7.485-7.485a.75.75 0 0 1 0-1.06L16.47 2.22a.75.75 0 1 1 1.06 1.06l-1.853 1.853a.75.75 0 0 1-1.06 0Zm4.617 11.883a.75.75 0 0 1 0-1.06l1.486-1.486a.75.75 0 1 1 1.06 1.06l-1.486 1.486a.75.75 0 0 1-1.06 0Zm-1.947-2.053a.75.75 0 0 1 0-1.06l3.433-3.433a.75.75 0 1 1 1.06 1.06l-3.432 3.433a.75.75 0 0 1-1.06 0Zm.433-4.433a.75.75 0 0 1 0-1.061l3-3a.75.75 0 1 1 1.06 1.061l-2.999 3a.75.75 0 0 1-1.06 0Zm4.06-8.31a.75.75 0 0 1 0 1.06l-3.943 3.944a.75.75 0 1 1-1.06-1.06L20.72 2.22a.75.75 0 0 1 1.06 0Z" clip-rule="evenodd"/>
</svg>
